X:1
T:Beautiful Waters of Eden
T:Adam Geibel
T:Beautiful Waters of Eden
T:Public Domain
T:Public Domain
T:Public Domain
T:Public Domain
C:Adam Geibel
Z:Public Domain
%%score ( 1 2 ) ( 3 4 )
L:1/8
M:9/8
K:Bb
V:1 treble 
V:2 treble 
V:3 bass 
V:4 bass 
V:1
 [DF][^C=E][DF] | [Fd]3 [DB]3 [Fd][Ec][DB] | [Ec]3 [EG]3 [EG][^EF][EG] | %3
w: 1.~Mur- mur- ing|soft- ly, car- ol- ing|gent- ly, Mu- sic en-|
w: 2.~Si- lent- ly|mus- ing, bliss- ful- ly|gaz- ing In- to the|
w: 3.~There our Re-|deem- er, lov- ing Re-|deem- er, Ga- thers the|
 [=Ec]3 [EG]3 [EB][EA][EG] | (F3 E3) [DF][^C=E][DF] | [Fd]3 [DB]3 [Fd][Ec][DB] | %6
w: chant- ing com- eth to|me; * O- ver the|ters, beau- ti- ful wa-|
w: fu- ture teem- ing with|light, * Sweet- ly the|choes float- ing a- round|
w: faith- ful safe on His|breast, * Out of the|ing in- to the change-|
 [Ec]3 [EG]3 [Ge][Gd][Gc] | F3 [FB]3 [EA][EG][EA] | [DB]6 D[DG][DB] | [Gd]3 [GB]3 [GB][^FA]G | %10
w: ters, Where in the home-|land soon I shall be.|like a vi- sion|der- ly steal- ing, O-|
w: me, Whis- per of E-|den, love- ly and bright.|den, where sum- mer,|less, e- ter- nal, Scat-|
w: less, Out of the toil-|ing in- to the rest.|come the mo- ment|to His pre- sence, Joy-|
 [GB]3 [^FA]3 [FA][FA][FA] | [GB]3 [GB]3 [Gc][GB][Gc] | [^Fd]6 [Fd][Fd][Fd] | %13
w: my spir- it, wear- y,|op- pressed; Draw- ing me|up- ward, urg- ing|
w: its ros- es, bloom- ing|for aye; There is no|part- ing, there is|
w: my spir- it flies like|a bird; O what a|mor- row, O what|
 [Fd]3 [FG]3 [Ge][Gd][Gd] | [Ge]3 [EG]3 GAB | c3 c3 [=EG][EA][EG] | (F3 [EF]3) || %17
w: me for- ward, Tell- ing|of sun- shine, rap- ture|mur- ing soft- ly, car-|gent- *|
w: no weep- ing, Sor- row|and sigh- ing van- ish|||
w: a meet- ing, Eye hath|not seen it, ear hath|||
"^Refrain" [DF][^C=E][DF] | [Fd]3 [DB]3 [Fd][Ec][DB] | [Ec]3 [EG]3 [EG][E^F][EG] | %20
w: Mu- sic en-|chant- ing com- eth to|me; O- ver the wa-|
w: |||
w: |||
 [=Ec]3 [EG]3 [EB][EA][EG] | (F3 E3) [DF][^C=E][DF] | [Fd]3 [DB]3 [Fd][Ec][Fd] | %23
w: ters, beau- ti- ful wa-|ters, * Where in the|land soon I shall be.|
w: |||
w: |||
 [_Af]3 [Ge]3 [Ge][Fd][Ec] | [DF]3 [FB]3 [EA][EG][EA] | [DB]6 |] %26
w: |||
w: |||
w: |||
V:2
 x3 | x9 | x9 | x9 | A6 x3 | x9 | x9 | F3 x6 | x6 D x2 | x8 G | x9 | x9 | x9 | x9 | x6 GAB | %15
w: ||||wa-|||How|ten-|ver|||||and rest. Mur-|
w: ||||e-|||E-|fade-|ters|||||a- way. *|
w: ||||chang-|||Wel-|when|ful|||||not heard. *|
 c3 c3 x3 | F3 x3 || x3 | x9 | x9 | x9 | A6 x3 | x9 | x9 | x9 | x6 |] %26
w: ol- ing|ly,|||||home-|||||
w: |||||||||||
w: |||||||||||
V:3
 [B,,B,][B,,B,][B,,B,] | [B,,B,]3 [B,,F,]3 [B,,B,][B,,B,][B,,F,] | %2
w: ~ ~ ~|~ ~ ~ ~ ~|
 [E,G,]3 [E,B,]3 [E,B,][E,B,][E,B,] | [C,C]3 [C,C]3 [C,C][C,C][C,C] | %4
w: ~ ~ ~ ~ ~|~ ~ ~ ~ ~|
 [F,C]6 [B,,B,][B,,B,][B,,B,] | [B,,B,]3 [B,,F,]3 [B,,B,][B,,B,][B,,F,] | %6
w: ~ ~ ~ ~|~ ~ ~ ~ ~|
 [E,G,]3 [E,B,]3 [C,C][D,=B,][E,C] | [F,D]3 [F,D]3 [F,C][F,B,][F,C] | [B,,B,]6 [G,B,][G,B,][G,B,] | %9
w: ~ ~ ~ ~ ~|~ ~ ~ ~ ~|~ ~ ~ ~|
 [G,B,]3 [G,D]3 [G,D][G,C][G,B,] | [D,D]3 [D,D]3 [D,D][D,D][D,D] | %11
w: ~ ~ ~ ~ ~|~ ~ ~ ~ ~|
 [G,D]3 [G,D]3 [E,G,][E,G,][E,G,] | [D,A,]6 [D,C][D,C][D,C] | [G,=B,]3 [G,B,]3 [G,B,][G,B,][G,B,] | %14
w: ~ ~ ~ ~ ~|~ ~ ~ ~|~ ~ ~ ~ ~|
 [C,C]3 [C,C]3 G,A,B, | C3 C3 [C,B,][C,C][C,B,] | ([F,A,]3 [F,C]3) || z3 | %18
w: ~ ~ ~ ~ ~|~ ~ ~ Mur- mur-|ly, *||
 [B,,B,][B,,B,][B,,B,] [B,,F,]2 [B,,F,] z3 | [E,G,][E,G,][E,G,] [E,B,]2 [E,B,] z3 | %20
w: car- ol- ing gent- ly,|Mu- sic en- chant- ing|
 [C,C][C,C][C,C] [C,C]2 [C,C] [C,C][C,C][C,C] | [F,C]6 z3 | %22
w: ~ ~ ~ ~ O- ver the wa-|ters,|
 [B,,B,][B,,B,][B,,B,] [B,,F,]2 [B,,F,] z3 | [D,B,][D,B,][D,B,] [E,B,]2 [E,B,] z3 | %24
w: beau- ti- ful wa- ters,|Where in the home- land|
 [F,B,][F,B,][F,B,] [F,D]2 [F,D] [F,C][F,B,][F,C] | [B,,B,]6 |] %26
w: ||
V:4
 x3 | x9 | x9 | x9 | x9 | x9 | x9 | x9 | x9 | x9 | x9 | x9 | x9 | x9 | x6 G,A,B, | C3 C3 x3 | x6 || %17
w: ||||||||||||||~ ~ ~|ing soft-||
 x3 | x9 | x9 | x9 | x9 | x9 | x9 | x9 | x6 |] %26
w: |||||||||

